X: 1
T: Changeling, The
M: 4/4
L: 1/8
R: reel
K: Amix
gfed cA (3AAA | aA (3AAA cAeA | gfed cA (3AAA | GABd edea |
gfed cA (3AAA | aA (3AAA cAeA | gfed cA (3AAA | GABc dcde |
cA (3AAA A2ed | cA (3AAA GBdB | cA (3AAA EA (3AAA | GABc dcde |
cA (3AAA A2ed | cA (3AAA GBdB | cA (3AAA EA (3AAA | GABc dcdf |
ea (3aaa caAa | ea (3aaa caAa | eg (3ggg dgBg | eg (3ggg dgBg |
ef (3fff dfAf | ef (3fff dfAf | GABd edef | gfea gedB|
